assets/icons/home-icon.svg

<svg width="24" height="24" viewBox="0 0 24 24" fill="none" xmlns="http://www.w3.org/2000/svg">
<path d="M23.7487 13.293L12.6059 0.292951C12.2711 -0.0976502 11.7287 -0.0976502 11.3939 0.292951L0.251118 13.293C0.00589158 13.5791 -0.0673933 14.0088 0.065291 14.3828C0.198061 14.7563 0.510658 15 0.857197 15H3.4286V23C3.4286 23.5522 3.81242 24 4.28573 24H9.60682H14.5713H19.7141C20.1879 24 20.5713 23.5522 20.5713 23V15H23.1427C23.4892 15 23.8022 14.7563 23.9345 14.3828C24.0676 14.0088 23.994 13.5791 23.7487 13.293ZM10.2857 22V17C10.2857 15.897 11.0545 15 11.9999 15C12.9449 15 13.7142 15.897 13.7142 17V22H10.2857ZM19.7141 13C19.2404 13 18.857 13.4478 18.857 14V22H15.4285V17C15.4285 14.7944 13.8909 13 11.9999 13C10.1094 13 8.5714 14.7944 8.5714 17V22H5.14287V14C5.14287 13.4478 4.75904 13 4.28573 13H2.9264L11.9999 2.41405L21.0735 13H19.7141Z" fill="white"/>
</svg>

<svg width="24" height="24" fill="none" xmlns="http://www.w3.org/2000/svg"><path d="m23.749 13.293-11.143-13c-.335-.39-.877-.39-1.212 0l-11.143 13a1.124 1.124 0 0 0-.186 1.09c.133.373.446.617.792.617H3.43v8c0 .552.383 1 .857 1h15.428c.474 0 .857-.448.857-1v-8h2.572c.346 0 .66-.244.791-.617.134-.374.06-.804-.185-1.09zM10.286 22v-5c0-1.103.769-2 1.714-2s1.714.897 1.714 2v5h-3.428zm9.428-9c-.474 0-.857.448-.857 1v8h-3.428v-5c0-2.206-1.538-4-3.43-4-1.89 0-3.428 1.794-3.428 4v5H5.143v-8c0-.552-.384-1-.857-1h-1.36L12 2.414 21.073 13h-1.359z" fill="#fff"/></svg>
